build/img/foto/logo.svg

<svg width="145" height="23" viewBox="0 0 145 23" fill="none" xmlns="http://www.w3.org/2000/svg">
<path d="M144.193 5.75894C144.174 6.48546 143.918 6.78814 143.192 6.87518C141.865 7.03475 140.534 7.15865 139.234 7.29431C137.97 7.16688 136.749 7.05122 135.529 6.91752C134.856 6.84342 134.549 6.53211 134.518 5.84677C134.486 5.15162 134.49 4.45294 134.517 3.75701C134.54 3.15086 134.935 2.73644 135.532 2.63097C138.087 2.1789 140.642 2.22399 143.194 2.64939C143.84 2.75721 144.178 3.16458 144.194 3.83385C144.209 4.4749 144.21 5.11751 144.193 5.75894ZM143.266 2.01031C140.659 1.56217 138.048 1.51865 135.438 1.99541C134.566 2.1542 133.977 2.68272 133.896 3.55352C133.819 4.38825 133.817 5.24454 133.909 6.07731C134.011 6.99555 134.479 7.44643 135.293 7.54484C136.602 7.70324 137.917 7.81969 139.263 7.95731C140.646 7.80753 142.049 7.65776 143.451 7.50368C144.184 7.4233 144.66 7.00417 144.745 6.29099C144.84 5.49508 144.84 4.68505 144.841 3.88129C144.842 2.85249 144.282 2.18479 143.266 2.01031Z" fill="white"/>
<path d="M32.0675 0.502983H31.6135V22.7736H32.0675V0.502983Z" fill="white"/>
<path d="M56.3721 5.06814L50.7082 15.7922L45.045 5.06735H42.4377V17.5663H43.9084V6.53803H44.1586L49.9825 17.5663H51.4351L57.2586 6.53803H57.5083V17.5663H58.9786V5.06735H56.3721V5.06814Z" fill="white"/>
<path d="M64.1731 13.3997L67.3211 6.53803H68.6706L71.8189 13.3997H64.1731ZM66.3777 5.06735L60.6436 17.5663H62.2617L63.4983 14.8704H72.4937L73.7299 17.5663H75.3484L69.6139 5.06735H66.3777Z" fill="white"/>
<path d="M90.2434 16.0956H89.7525L79.6162 5.06735H77.0089V17.5663H78.4796V6.53803H78.8975L89.1072 17.5663H91.7141V5.06735H90.2434V16.0956Z" fill="white"/>
<path d="M95.8048 7.09731C95.8135 6.92126 95.8872 6.75581 96.0122 6.63074C96.1373 6.50645 96.3028 6.43352 96.4788 6.42529C98.2471 6.34413 99.8699 6.30296 101.639 6.30296C103.406 6.30296 105.029 6.34413 106.798 6.42529C106.973 6.43352 107.139 6.50645 107.264 6.63074C107.389 6.75581 107.463 6.92126 107.472 7.09731C107.49 7.4588 107.506 7.82108 107.519 8.18414H108.99C108.976 7.79716 108.96 7.41058 108.941 7.02399C108.884 5.90344 107.985 5.00794 106.865 4.95618C105.065 4.87385 103.437 4.83268 101.638 4.83268C99.8385 4.83268 98.2102 4.87385 96.411 4.95618C95.29 5.00794 94.3914 5.90344 94.3357 7.02399C94.3161 7.41058 94.2993 7.79716 94.2855 8.18414L94.2887 9.98416C94.3447 11.1047 95.2434 12.0002 96.3639 12.0516H106.848C107.023 12.0598 107.189 12.1323 107.314 12.257C107.439 12.3817 107.513 12.5472 107.522 12.7236L107.518 14.4499C107.505 14.8126 107.489 15.1748 107.471 15.5363C107.462 15.7124 107.389 15.8782 107.263 16.0029C107.139 16.1276 106.973 16.2005 106.797 16.2084C105.028 16.2895 103.406 16.3311 101.637 16.3311C99.8687 16.3311 98.2459 16.2895 96.478 16.2084C96.3016 16.2005 96.1361 16.1276 96.0115 16.0029C95.8864 15.8782 95.8123 15.7124 95.8037 15.5363C95.7856 15.1748 95.7699 14.8126 95.7566 14.4499H94.2852C94.2993 14.8365 94.3161 15.2231 94.3353 15.61C94.3914 16.7306 95.29 17.6257 96.411 17.6775C98.2102 17.7598 99.8385 17.8014 101.638 17.8014C103.437 17.8014 105.066 17.7598 106.865 17.6775C107.985 17.6261 108.884 16.7306 108.941 15.61C108.96 15.2231 108.976 14.8365 108.99 14.4499L108.989 12.6499C108.932 11.5293 108.034 10.6338 106.914 10.5825H96.4294C96.2538 10.5742 96.0879 10.5013 95.9632 10.3766C95.8386 10.2523 95.7644 10.0865 95.7558 9.91045L95.7574 8.18414C95.7711 7.82108 95.7868 7.4588 95.8048 7.09731Z" fill="white"/>
<path d="M113.033 5.06735H111.562V17.5663H113.033V5.06735Z" fill="white"/>
<path d="M129.346 15.5313C129.337 15.7077 129.263 15.8732 129.138 15.9979C129.013 16.1225 128.848 16.1955 128.672 16.2033C126.903 16.2845 125.11 16.326 123.341 16.326C121.573 16.326 119.78 16.2845 118.011 16.2033C117.835 16.1955 117.67 16.1225 117.545 15.9979C117.42 15.8732 117.346 15.7077 117.337 15.5313C117.197 12.7358 117.197 9.89992 117.337 7.10246C117.346 6.92642 117.42 6.76057 117.545 6.63589C117.67 6.51161 117.835 6.43868 118.011 6.43045C119.78 6.34929 121.573 6.30812 123.341 6.30812C125.11 6.30812 126.903 6.34929 128.672 6.43045C128.848 6.43868 129.013 6.51161 129.138 6.63589C129.263 6.76057 129.337 6.92642 129.346 7.10246C129.486 9.89992 129.486 12.7358 129.346 15.5313ZM128.739 4.96134C126.94 4.87901 125.141 4.83784 123.341 4.83784C121.542 4.83784 119.743 4.87901 117.944 4.96134C116.823 5.0127 115.924 5.90859 115.868 7.02875C115.725 9.88777 115.725 12.7468 115.868 15.605C115.924 16.7252 116.823 17.6211 117.944 17.6724C119.743 17.7548 121.542 17.7963 123.341 17.7963C125.14 17.7963 126.94 17.7548 128.739 17.6724C129.86 17.6211 130.758 16.7252 130.814 15.605C130.958 12.7468 130.958 9.88777 130.814 7.02875C130.758 5.90859 129.86 5.0127 128.739 4.96134Z" fill="white"/>
<path d="M136.482 3.75528C136.509 3.72861 136.544 3.71293 136.582 3.71136C136.959 3.69411 137.341 3.68549 137.718 3.68549C138.095 3.68549 138.478 3.69411 138.854 3.71136C138.892 3.71293 138.927 3.72861 138.954 3.75528C138.981 3.78194 138.996 3.81723 138.998 3.85486C139.002 3.9321 139.005 4.00934 139.008 4.08697H139.322C139.319 4.00424 139.315 3.92152 139.311 3.83918C139.299 3.60001 139.108 3.40947 138.869 3.3981C138.485 3.38084 138.102 3.37183 137.718 3.37183C137.335 3.37183 136.951 3.38084 136.567 3.3981C136.328 3.40947 136.137 3.60001 136.125 3.83918C136.094 4.44847 136.094 5.05814 136.125 5.66704C136.137 5.9062 136.328 6.09714 136.567 6.10812C136.951 6.12577 137.335 6.13439 137.718 6.13439C138.102 6.13439 138.485 6.12577 138.869 6.10812C139.108 6.09714 139.299 5.9062 139.312 5.66704C139.315 5.5847 139.319 5.50237 139.322 5.42003V5.04207C139.31 4.8033 139.118 4.61235 138.879 4.60138H137.16V4.91661L138.865 4.91425C138.903 4.91621 138.938 4.9319 138.965 4.95816C138.991 4.98483 139.007 5.02011 139.009 5.05775L139.008 5.42003C139.005 5.49727 139.002 5.57451 138.998 5.65175C138.996 5.689 138.981 5.72428 138.954 5.75094C138.927 5.7776 138.892 5.79329 138.854 5.79486C138.478 5.81211 138.095 5.82073 137.718 5.82073C137.341 5.82073 136.959 5.81211 136.582 5.79486C136.544 5.79329 136.509 5.7776 136.482 5.75094C136.455 5.72428 136.44 5.689 136.438 5.65175C136.408 5.0554 136.408 4.45121 136.438 3.85486C136.44 3.81723 136.455 3.78194 136.482 3.75528Z" fill="white"/>
<path d="M140.182 4.7531V3.73409H142.35C142.388 3.73605 142.423 3.75173 142.449 3.778C142.476 3.80466 142.491 3.84034 142.493 3.87759V4.6143C142.492 4.65194 142.476 4.68723 142.449 4.71389C142.422 4.74055 142.387 4.75623 142.35 4.7578L140.182 4.7531ZM142.364 5.07068C142.603 5.06009 142.794 4.86915 142.807 4.62999V3.86348C142.795 3.62431 142.604 3.43298 142.366 3.42082H139.869V6.08537H140.182V5.07068H140.955L142.447 6.08537L143.003 6.08498L141.513 5.07068H142.364Z" fill="white"/>
<path d="M16.0828 0.502983L11.5163 8.63384C11.4563 8.74088 11.3018 8.74088 11.2418 8.63384L6.67496 0.502983H0.269623V22.7736L5.69398 14.791C5.75632 14.6992 5.89198 14.6992 5.95471 14.791L11.3791 22.7736L16.8034 14.791C16.8658 14.6992 17.0014 14.6992 17.0638 14.791L22.4881 22.7736V0.502983H16.0828Z" fill="white"/>
</svg>

<svg width="145" height="23" fill="none" xmlns="http://www.w3.org/2000/svg"><path d="M144.193 5.759c-.019.726-.275 1.03-1.001 1.116-1.327.16-2.658.284-3.958.42-1.264-.128-2.485-.244-3.705-.377-.673-.075-.98-.386-1.011-1.071a24.684 24.684 0 01-.001-2.09c.023-.606.418-1.02 1.015-1.126 2.555-.452 5.11-.407 7.662.018.646.108.984.516 1 1.185a38.61 38.61 0 01-.001 1.925zm-.927-3.749c-2.607-.448-5.218-.491-7.828-.015-.872.16-1.461.688-1.542 1.559-.077.834-.079 1.69.013 2.523.102.919.57 1.37 1.384 1.468 1.309.158 2.624.275 3.97.412 1.383-.15 2.786-.3 4.188-.453.733-.08 1.209-.5 1.294-1.213.095-.796.095-1.606.096-2.41.001-1.029-.559-1.696-1.575-1.87zM32.068.503h-.454v22.27h.454V.504zm24.304 4.565l-5.664 10.724-5.663-10.725h-2.607v12.5h1.47V6.537h.25l5.825 11.028h1.452L57.26 6.538h.25v11.028h1.47V5.067h-2.607v.001zm7.801 8.332l3.148-6.862h1.35l3.148 6.862h-7.646zm2.205-8.333l-5.734 12.5h1.618l1.236-2.697h8.996l1.236 2.696h1.618L69.614 5.067h-3.236zm23.865 11.029h-.49L79.615 5.067H77.01v12.5h1.47V6.537h.418l10.21 11.028h2.607V5.067h-1.47v11.029zm5.562-8.999a.708.708 0 01.674-.672 109.445 109.445 0 0110.319 0 .708.708 0 01.674.672c.018.362.034.724.047 1.087h1.471c-.014-.387-.03-.773-.049-1.16a2.181 2.181 0 00-2.076-2.068 110.758 110.758 0 00-10.454 0 2.179 2.179 0 00-2.075 2.068c-.02.387-.037.773-.05 1.16l.003 1.8a2.179 2.179 0 002.075 2.068h10.484a.706.706 0 01.674.672l-.004 1.726c-.013.363-.029.725-.047 1.086a.705.705 0 01-.674.672 109.543 109.543 0 01-10.319 0 .707.707 0 01-.674-.672 81.314 81.314 0 01-.047-1.086h-1.472c.014.386.031.773.05 1.16a2.18 2.18 0 002.076 2.067 110.757 110.757 0 0010.454 0 2.18 2.18 0 002.076-2.067c.019-.387.035-.774.049-1.16l-.001-1.8a2.18 2.18 0 00-2.075-2.068H96.429a.705.705 0 01-.673-.672l.001-1.726c.014-.363.03-.725.048-1.087zm17.228-2.03h-1.471v12.5h1.471v-12.5zm16.313 10.464a.709.709 0 01-.674.672 116.773 116.773 0 01-10.661 0 .709.709 0 01-.674-.672 84.63 84.63 0 010-8.429.71.71 0 01.674-.672 116.819 116.819 0 0110.661 0 .706.706 0 01.674.672 84.63 84.63 0 010 8.43zm-.607-10.57a118.05 118.05 0 00-10.795 0 2.18 2.18 0 00-2.076 2.068 85.779 85.779 0 000 8.576 2.18 2.18 0 002.076 2.067 117.939 117.939 0 0010.795 0 2.178 2.178 0 002.075-2.067 85.184 85.184 0 000-8.576 2.178 2.178 0 00-2.075-2.068z" fill="#fff"/><path d="M136.482 3.755a.15.15 0 01.1-.044 24.96 24.96 0 012.272 0 .15.15 0 01.144.144l.01.232h.314a20.178 20.178 0 00-.011-.248.464.464 0 00-.442-.44 25.608 25.608 0 00-2.302 0 .464.464 0 00-.442.44c-.031.61-.031 1.22 0 1.828.012.24.203.43.442.441a25.075 25.075 0 002.302 0 .466.466 0 00.443-.441l.01-.247v-.378a.465.465 0 00-.443-.44h-1.719v.315l1.705-.003a.154.154 0 01.1.044.155.155 0 01.044.1l-.001.362-.01.232a.15.15 0 01-.144.143 24.927 24.927 0 01-2.272 0 .15.15 0 01-.144-.143c-.03-.597-.03-1.2 0-1.797a.15.15 0 01.044-.1zm3.7.998V3.734h2.168a.15.15 0 01.143.144v.736a.15.15 0 01-.143.143l-2.168-.004zm2.182.318a.465.465 0 00.443-.441v-.767a.466.466 0 00-.441-.442h-2.497v2.664h.313V5.071h.773l1.492 1.014h.556l-1.49-1.014h.851zM16.083.503l-4.567 8.13a.157.157 0 01-.274 0L6.675.504H.27v22.27l5.424-7.982a.158.158 0 01.26 0l5.425 7.983 5.424-7.983a.158.158 0 01.26 0l5.425 7.983V.503h-6.405z" fill="#fff"/></svg>
